raw/symbols/uma.svg

<svg width="42" height="42" viewBox="0 0 42 42" fill="none" xmlns="http://www.w3.org/2000/svg">
<rect width="42" height="42" rx="21" fill="#FF4A4A"/>
<path d="M25.8323 25.2585H24.3876C24.1136 25.2585 23.8894 25.0344 23.8894 24.7604V20.9742L21.3487 22.5684C21.1245 22.6929 20.8755 22.6929 20.6513 22.5684L18.1355 20.9742V24.7853C18.1355 25.0593 17.9113 25.2835 17.6373 25.2835H16.1926C15.9186 25.2835 15.6944 25.0593 15.6944 24.7853V17.4372C15.6944 17.0636 15.9933 16.7896 16.3421 16.7896C16.4666 16.7896 16.5911 16.8394 16.7157 16.9141L20.726 19.6541C20.9004 19.7786 21.1245 19.7786 21.274 19.6541L25.2843 16.9141C25.5832 16.7148 25.9818 16.7896 26.2059 17.0885C26.2807 17.1881 26.3305 17.3376 26.3305 17.4621V24.7853C26.3056 25.0344 26.1063 25.2585 25.8323 25.2585Z" fill="#F3F3F3"/>
<path d="M13.5274 25.2087H4.58513C4.23641 25.2087 3.9375 24.9098 3.9375 24.5611V17.213C3.9375 16.939 4.16168 16.7148 4.43568 16.7148H5.88038C6.15438 16.7148 6.37856 16.939 6.37856 17.213V22.7926H11.7838V17.213C11.7838 16.939 12.0079 16.7148 12.2819 16.7148H13.7266C14.0006 16.7148 14.2248 16.939 14.2248 17.213V24.5611C14.175 24.9098 13.901 25.2087 13.5274 25.2087Z" fill="#F3F3F3"/>
<path d="M28.4726 16.7148H37.4149C37.7636 16.7148 38.0625 17.0137 38.0625 17.3625V24.7106C38.0625 24.9846 37.8383 25.2087 37.5643 25.2087H36.1196C35.8456 25.2087 35.6214 24.9846 35.6214 24.7106V19.4548C35.6214 19.2804 35.472 19.131 35.2976 19.131H30.5401C30.3657 19.131 30.2162 19.2804 30.2162 19.4548V24.7106C30.2162 24.9846 29.9921 25.2087 29.7181 25.2087H28.2734C27.9994 25.2087 27.7752 24.9846 27.7752 24.7106V17.3625C27.825 17.0137 28.099 16.7148 28.4726 16.7148Z" fill="#F3F3F3"/>
<path d="M31.7357 21.1735V22.6182C31.7357 22.8922 31.9599 23.0915 32.2338 23.0915H33.6786C33.9526 23.0915 34.1767 22.8673 34.1767 22.6182V21.1735C34.1767 20.8995 33.9526 20.7002 33.6786 20.7002H32.2338C31.9599 20.7002 31.7357 20.8995 31.7357 21.1735Z" fill="#F3F3F3"/>
</svg>

<svg xmlns="http://www.w3.org/2000/svg" width="42" height="42" fill="none"><rect width="42" height="42" fill="#FF4A4A" rx="21"/><path fill="#F3F3F3" d="M25.832 25.259h-1.444a.5.5 0 0 1-.499-.499v-3.786l-2.54 1.594a.698.698 0 0 1-.698 0l-2.515-1.594v3.811a.5.5 0 0 1-.499.498h-1.444a.5.5 0 0 1-.499-.498v-7.348c0-.373.3-.647.648-.647.125 0 .25.05.374.124l4.01 2.74c.174.125.399.125.548 0l4.01-2.74a.677.677 0 0 1 1.047.548v7.323c-.025.25-.225.474-.499.474ZM13.527 25.209H4.585a.66.66 0 0 1-.647-.648v-7.348a.5.5 0 0 1 .498-.498H5.88a.5.5 0 0 1 .499.498v5.58h5.405v-5.58a.5.5 0 0 1 .498-.498h1.445a.5.5 0 0 1 .498.498v7.348c-.05.349-.324.648-.698.648ZM28.473 16.715h8.942a.66.66 0 0 1 .648.648v7.348a.5.5 0 0 1-.499.498H36.12a.5.5 0 0 1-.499-.498v-5.256a.33.33 0 0 0-.323-.324H30.54a.33.33 0 0 0-.324.324v5.256a.5.5 0 0 1-.498.498h-1.445a.5.5 0 0 1-.498-.498v-7.348c.05-.35.324-.648.698-.648Z"/><path fill="#F3F3F3" d="M31.736 21.174v1.444c0 .274.224.474.498.474h1.445c.274 0 .498-.225.498-.474v-1.444c0-.274-.224-.474-.498-.474h-1.445c-.274 0-.498.2-.498.474Z"/></svg>
